T: Hop, The
M: 12/8
L: 1/8
K: Dmaj
|: B | A2 F DFA B2 A d2 e | f2 b afb afd e2 d ||: f | a3 afd ede f3 | e3 edf edf efg |
</html>
